sailfishos/icons/src/sensitive-breach.svg

<?xml version="1.0" encoding="UTF-8" standalone="no"?>
<svg
   xmlns:dc="http://purl.org/dc/elements/1.1/"
   xmlns:cc="http://creativecommons.org/ns#"
   xmlns:rdf="http://www.w3.org/1999/02/22-rdf-syntax-ns#"
   xmlns:svg="http://www.w3.org/2000/svg"
   xmlns="http://www.w3.org/2000/svg"
   xmlns:sodipodi="http://sodipodi.sourceforge.net/DTD/sodipodi-0.dtd"
   xmlns:inkscape="http://www.inkscape.org/namespaces/inkscape"
   width="1792"
   height="1792"
   viewBox="0 0 1792 1792"
   version="1.1"
   id="svg4"
   sodipodi:docname="sensitive-breach.svg"
   inkscape:version="0.92.2 5c3e80d, 2017-08-06">
  <metadata
     id="metadata10">
    <rdf:RDF>
      <cc:Work
         rdf:about="">
        <dc:format>image/svg+xml</dc:format>
        <dc:type
           rdf:resource="http://purl.org/dc/dcmitype/StillImage" />
        <dc:title></dc:title>
      </cc:Work>
    </rdf:RDF>
  </metadata>
  <defs
     id="defs8" />
  <sodipodi:namedview
     pagecolor="#ffffff"
     bordercolor="#666666"
     borderopacity="1"
     objecttolerance="10"
     gridtolerance="10"
     guidetolerance="10"
     inkscape:pageopacity="0"
     inkscape:pageshadow="2"
     inkscape:window-width="1415"
     inkscape:window-height="1047"
     id="namedview6"
     showgrid="false"
     inkscape:zoom="0.13169643"
     inkscape:cx="896.15613"
     inkscape:cy="896.77711"
     inkscape:window-x="0"
     inkscape:window-y="0"
     inkscape:window-maximized="0"
     inkscape:current-layer="svg4" />
  <path
     d="M1600 1696v64q0 13-9.5 22.5t-22.5 9.5h-1344q-13 0-22.5-9.5t-9.5-22.5v-64q0-13 9.5-22.5t22.5-9.5h1344q13 0 22.5 9.5t9.5 22.5zm-256-1056q0 78-24.5 144t-64 112.5-87.5 88-96 77.5-87.5 72-64 81.5-24.5 96.5q0 96 67 224l-4-1 1 1q-90-41-160-83t-138.5-100-113.5-122.5-72.5-150.5-27.5-184q0-78 24.5-144t64-112.5 87.5-88 96-77.5 87.5-72 64-81.5 24.5-96.5q0-94-66-224l3 1-1-1q90 41 160 83t138.5 100 113.5 122.5 72.5 150.5 27.5 184z"
     fill="#fff"
     id="path2" />
</svg>

<?xml version="1.0" encoding="UTF-8" standalone="no"?>
<svg
   xmlns:dc="http://purl.org/dc/elements/1.1/"
   xmlns:cc="http://creativecommons.org/ns#"
   xmlns:rdf="http://www.w3.org/1999/02/22-rdf-syntax-ns#"
   xmlns:svg="http://www.w3.org/2000/svg"
   xmlns="http://www.w3.org/2000/svg"
   xmlns:sodipodi="http://sodipodi.sourceforge.net/DTD/sodipodi-0.dtd"
   xmlns:inkscape="http://www.inkscape.org/namespaces/inkscape"
   width="1792"
   height="1792"
   viewBox="0 0 1792 1792"
   version="1.1"
   id="svg4"
   sodipodi:docname="sensitive-breach.svg"
   inkscape:version="0.92.3 (2405546, 2018-03-11)">
  <metadata
     id="metadata10">
    <rdf:RDF>
      <cc:Work
         rdf:about="">
        <dc:format>image/svg+xml</dc:format>
        <dc:type
           rdf:resource="http://purl.org/dc/dcmitype/StillImage" />
        <dc:title />
      </cc:Work>
    </rdf:RDF>
  </metadata>
  <defs
     id="defs8" />
  <sodipodi:namedview
     pagecolor="#ffffff"
     bordercolor="#666666"
     borderopacity="1"
     objecttolerance="10"
     gridtolerance="10"
     guidetolerance="10"
     inkscape:pageopacity="0"
     inkscape:pageshadow="2"
     inkscape:window-width="1415"
     inkscape:window-height="1047"
     id="namedview6"
     showgrid="false"
     inkscape:zoom="0.13169643"
     inkscape:cx="896.15615"
     inkscape:cy="896.77713"
     inkscape:window-x="0"
     inkscape:window-y="0"
     inkscape:window-maximized="0"
     inkscape:current-layer="svg4"
     inkscape:pagecheckerboard="true" />
  <g
     id="g10">
    <path
       style="fill:#ffffff"
       id="path9"
       d="m 1600,1696 v 64 q 0,13 -9.5,22.5 -9.5,9.5 -22.5,9.5 H 224 q -13,0 -22.5,-9.5 Q 192,1773 192,1760 v -64 q 0,-13 9.5,-22.5 9.5,-9.5 22.5,-9.5 h 1344 q 13,0 22.5,9.5 9.5,9.5 9.5,22.5 z" />
    <path
       style="fill:#ffffff;fill-opacity:0.50588238"
       id="path2"
       d="m 1344,640 q 0,78 -24.5,144 -24.5,66 -64,112.5 -39.5,46.5 -87.5,88 -48,41.5 -96,77.5 -48,36 -87.5,72 -39.5,36 -64,81.5 -24.5,45.5 -24.5,96.5 0,96 67,224 l -4,-1 1,1 Q 870,1495 800,1453 730,1411 661.5,1353 593,1295 548,1230.5 503,1166 475.5,1080 448,994 448,896 448,818 472.5,752 497,686 536.5,639.5 576,593 624,551.5 672,510 720,474 768,438 807.5,402 847,366 871.5,320.5 896,275 896,224 896,130 830,0 l 3,1 -1,-1 q 90,41 160,83 70,42 138.5,100 68.5,58 113.5,122.5 45,64.5 72.5,150.5 27.5,86 27.5,184 z" />
  </g>
</svg>
